X: 845
P: Longways for as many as will
M: C|
L: 1/8
K: C
g2 |\
e2c2 dc BA | G6 g2 | e2c2 c2d2 | e2c2 c2de |\
f2fg agfe | d2g2 g2a2 | ^f2d2 g2^f2 | g2G2 G2 |]
[| g2 |\
g2fe de fg | a2f2 f2g2 | c2c2 A2d2 | B2G2 G2e2 |\

